!!!!SEGMENT: pl-wnifc--13846--101_anonim--piesni-polskie-i-ruskie-ludu-galicyjskiego-101-z-ukrainy-tut-przychodzu.krn
!!!cenid: 18xx:3323
!!!COM: Anonim
!!!COM-rismid: pe30004985
!!!CDT:
!!!CNT:
!!!GTL: Pieśni polskie i ruskie ludu galicyjskiego
!!!OTL: 101. Z Ukrainy tut przychodżu
!!!PDT: 1833
!!!AGN:
!!!SMS-siglum: PL-Wnifc
!!!SMS-shelfmark: 13846
!!!SMS-shelfwork: 101 G
!!!NIFC-rismid: 1001039209
!!!URL-scan: http://repozytorium.nifc.pl/skany/pl-wnifc-nut--13846
!!!ONB-nifc:
!!!OMD: Andante
!!!AIN: 2 empty
!!!key: a
**kern	**kern	**dynam	**kern	**text
*group2	*group2	*	*group1	*
*part2	*part2	*part2	*part1	*part1
*staff3	*staff2	*	*staff1	*staff1
*Iempty	*Iempty	*	*Iempty	*
*I"	*I"	*	*I"	*
*clefF4	*clefG2	*	*clefG2	*
*k[]	*k[]	*	*k[]	*
*a:	*a:	*	*a:	*
*M2/4	*M2/4	*	*M2/4	*
=1-	=1-	=1-	=1-	=1-
!	!	!	!LO:TX:b:B:rj:t=E.116.	!
*^	*	*	*	*
!	!	!LO:TX:a:t=|:problem	!	!	!
8G#X/L	8E\	(8e\L 8b\	.	8b\	Zal-
!	!	!LO:TX:a:t=|:problem	!	!	!
8A/J	8r	8e\J) 8cc\	.	8cc\	-kra-
8.B/L	8E\	8.e\L 8.dd\	.	8.dd\	-i-
.	8r	.	.	.	.
16G#/Jk	.	16e\Jk 16b\	.	16b\	-ny
*v	*v	*	*	*	*
=2	=2	=2	=2	=2
8E\ 8A\	8e/L 8cc/	.	8cc\	tut
8r	8e/ 8cc/	.	8cc\	pszycho-
8EE/ 8E/	8.d^</ 8.b/	.	8.b\	.
8r	.	.	.	.
!	!LO:N:vis=8	!	!	!
.	16B/Jk 16g#X/	.	16g#X/	-dżu,
!!LO:LB:g=original
=3	=3	=3	=3	=3
*	*^	*	*	*
8AAA/L 8AA/	8a/L	8c\L	.	8a/	wża-
8CC/J 8C/	8a/	8e\J	.	8a/	-ło-
4DD/ 4D/	8.b/	8f\ 8b\	.	8.b/	-sty
.	.	8ryy	.	.	.
.	16a/Jk	.	.	16a/	bid-
=4	=4	=4	=4	=4	=4
*^	*	*	*	*	*
8EE/L 8E/	4ryy	(<8.g#X/L	8ryy	.	8.g#X/L	-neń-
8E/J	.	.	4B\	.	.	.
.	.	16e/Jk)	.	.	16e/Jk	.
8G#X/L	8E\L	4e/	.	.	4e/	-ka,
8EJ/	8E\J	.	8ryy	.	.	.
*	*	*v	*v	*	*	*
=5	=5	=5	=5	=5	=5
*	*	*^	*	*	*
8G#X/L	8E\	8b/L	8.e\	.	8b\	ach
8A/J	8r	16cc/L	.	.	(>16cc\LL	szcza-
.	.	16ee/JJ	4e\	.	16ee\JJ)	.
8.B/L	8E\	8.dd/L	.	.	8.dd\	-sty-
.	8r	.	.	.	.	.
16G#/Jk	.	16b/Jk	16e\	.	16b\	-wam,
*	*	*v	*v	*	*	*
!!LO:LB:g=original
=6	=6	=6	=6	=6	=6
8A/	8E\	8e/L 8cc/	.	8cc\	szczo
8r	8ryy	8e/ 8cc/	.	8cc\	zna-
8G#X/	8E\	8.d/ 8.b/	.	8.b\	-cho-
8r	8ryy	.	.	.	.
.	.	16B/Jk 16g#X/	.	16g#X/	-dżu
*v	*v	*	*	*	*
=7	=7	=7	=7	=7
8AA/ 8E/ 8A/	8c/L 8a/	.	8a/	mo-
8r	(<16c/L 16a/	.	(<16a/LL	-ha
.	16e/JJ) 16cc/	.	16cc/JJ)	.
*	*^	*	*	*
8D\ 8d\	8.b/L	4f\	.	8.b/	ko-
8r	.	.	.	.	.
.	16a/Jk	.	.	16a/	-za-
=8	=8	=8	=8	=8	=8
8EE/ 8E/	8.g#X/L	8ryy	.	(<8.g#X/L	-czeń-
8r	.	4B\'>	.	.	.
.	16e/Jk	.	.	16e/Jk)	.
4E\^< 4G#X\	4e/	.	.	4e/	-ka
.	.	8ryy	.	.	.
*	*v	*v	*	*	*
!!LO:LB:g=original
=9!|:	=9!|:	=9!|:	=9!|:	=9!|:
!!mixed beam:problem
!LO:TX:t=P:problem=mixed beam	!	!	!	!
8EE^</L	8.b^<\L 8.dd\	.	8.dd\	ne
8E\J 8G#X\ 8e\	.	.	.	.
.	16a#X\K 16cc#X\	.	16cc#X\	ta-
!!mixed beam:problem
!LO:TX:t=P:problem=mixed beam	!	!	!	!
8EE^</L	8.b^<\ 8.dd\	.	8.dd\	-ki-
8E\J 8G#\ 8e\	.	.	.	.
.	16a#\Jk 16cc#\	.	16cc#\	-ji
=10	=10	=10	=10	=10
!!mixed beam:problem
!LO:TX:t=P:problem=mixed beam	!	!	!	!
!	!LO:TX:a:t=|:problem	!	!	!
8EE/L	8.b^<\L 8.dd\	.	8.dd\	tut
8E\J 8G#X\ 8e\	.	.	.	.
!	!LO:TX:a:t=|:problem	!	!	!
.	16a\Jk 16cc\	.	16ccn\	sto-
!!mixed beam:problem
!LO:TX:t=P:problem=mixed beam	!	!	!	!
!	!LO:TX:a:t=|:problem	!	!	!
8EE/L	8g#X\L 8b\	.	8b\	-ro-
!	!LO:TX:a:t=|:problem	!	!	!
8E\J 8G#\ 8e\	8g#\J 8b\	.	8b\	-ny
!!LO:PB:g=original
=11	=11	=11	=11	=11
!!mixed beam:problem
!LO:TX:t=P:problem=mixed beam	!	!	!	!
8AA^</L	8a\L 8cc\	.	8cc\	jak
8A\J 8e\	8g#X\J 8b\	.	8b\	u
!!mixed beam:problem
!LO:TX:t=P:problem=mixed beam	!	!	!	!
8AA^</L	8a\L 8cc\	.	8cc\	nas
8A\J 8e\	8b\J 8dd\	.	8dd\	lu-
=12	=12	=12	=12	=12
!!mixed beam:problem
!LO:TX:t=P:problem=mixed beam	!	!	!	!
8AA^</L	(>8.cc\L 8.ee\	.	(>8.ee\L	-by-
8A\J 8e\	.	.	.	.
.	16b\Jk) 16dd#X\	.	16dd#X\Jk)	.
!!mixed beam:problem
!LO:TX:t=P:problem=mixed beam	!	!	!	!
8AA^/L	4cc\ 4ee\	.	4ee\	-ji,
8A\J 8e\	.	.	.	.
=13	=13	=13	=13	=13
*^	*	*	*	*
!LO:N:vis=2	!	!	!	!	!
8CL/	2C\	8a\L	.	8a\	tut-
8E/ 8A/	.	8cc\	.	8cc\	-ki
8E/ 8A/	.	8.ee\	.	8.ee\	chło-
8E/J 8A/	.	.	.	.	.
.	.	16cc\Jk	.	16cc\	-pei
!!LO:LB:g=original
=14	=14	=14	=14	=14	=14
!LO:N:vis=2	!	!	!	!	!
8DL/	2D^\	8.b\L	.	8.b\L	jak
8F/ 8A/ 8B/	.	.	.	.	.
.	.	16dd\K	.	16dd\Jk	wo-
8F/ 8A/ 8B/	.	8.ff\	.	8.ff\L	-ro-
8F/J 8A/ 8B/	.	.	.	.	.
.	.	16dd\Jk	.	16dd\Jk	-ny
=15	=15	=15	=15	=15	=15
8E^<L/	4E\	(>\16ccLL	.	(>\16ccLL	pry-
.	.	16b\JJ)	.	16b\JJ)	.
8A/J 8c/	.	(</16aLL	.	(>/16aLL	-tom
.	.	16g#X/JJ)	.	16g#X/JJ)	.
8E^<L/	8EL\	8.ff\L	.	8.ff\	ne-
8d/J	8EJ\ 8B\	.	.	.	.
.	.	16g#\Jk	.	16g#/	-wier-
=16	=16	=16	=16	=16	=16
4c/	4A^\	(</8.bL	.	(</8.bL	-ny-
.	.	16a/Jk)	.	16a/Jk)	.
4c/	4A\	4a^</	.	4a/	-ji
*v	*v	*	*	*	*
!!LO:LB:g=original
==17	==17	==17	==17	==17
!	!LO:TX:a:B:t=Vivace	!LO:DY:b=2:rj	!	!
8AAA/L 8AA/	(>\8ccL 8ee\	f <	8ee\	Wo-
8AA/	8cc\J) 8aa\	[	8aa\	-zmim
!	!LO:TX:a:t=|:problem	!LO:DY:b=2:rj	!	!
8AAA/ 8AA/	8cc\L 8ee\	f	8ee\	sia
!	!LO:TX:a:t=|:problem	!	!	!
8AA/J	8cc\J 8ee\	.	8ee\	te-
=18	=18	=18	=18	=18
!	!LO:TX:a:t=|:problem	!LO:DY:b=2:rj	!	!
8AAA/L 8AA/	8cc\L 8ee\	f	8ee\	-per
!	!LO:TX:a:t=|:problem	!	!	!
8AA/	16b\L 16dd\	.	(>16dd\LL	za
!	!LO:TX:a:t=|:problem	!	!	!
.	16cc\JJ 16ee\	.	16ee\JJ)	.
!	!LO:TX:a:t=|:problem	!LO:DY:b=2:rj	!	!
8AAA/ 8AA/	8dd\L 8ff\	f	8ff\	ru-
!	!LO:TX:a:t=|:problem	!	!	!
8AA/J	8cc\J 8ee\	.	8ee\	-ki,
!!LO:LB:g=original
=19	=19	=19	=19	=19
!	!	!LO:DY:b=2:rj	!	!
8AAA/L 8AA/	8cc\L 8ee\	f	8ee\	bu-
8AA/	8cc\J 8aa\	.	8aa\	-dem
!	!	!LO:DY:b=2:rj	!	!
8AAA/ 8AA/	8cc\L 8ee\	f	8ee\	ży-
8AA/J	8cc\J 8ee\	.	8ee\	-ty
=20	=20	=20	=20	=20
!	!	!LO:DY:b=2:rj	!	!
8AAA/L 8AA/	8cc\L 8ee\	f	8ee\	bez
8AA/	(>16b\L (>16dd\	.	(>16dd\LL	roz-
.	16cc\JJ) 16ee\	.	16ee\JJ)	.
!	!	!LO:DY:b=2:rj	!	!
8AAA/ 8AA/	8dd^<\L) 8ff\	f	8ff\	-łu-
!	!LO:TX:a:t=|:problem	!	!	!
8AA/J	8cc\J 8ee\	.	8ee\	-ki
!!LO:PB:g=original
==21	==21	==21	==21	==21
*tremolo	*	*	*	*
!!mixed beam:problem
!LO:TX:t=P:problem=mixed beam	!	!LO:DY:b=2:rj	!	!
(>8EEL/	8cc\L 8ee\	f	8ee\	ne-
8E\	8cc\J 8ee\	sf	8ee\	-chaj
8EE/	8.b\L 8.dd\	.	8.dd\	szcza-
!	!LO:N:vis=8	!	!	!
8EJ\)	.	.	.	.
.	16g#X\Jk 16b\	.	16b\	-stia
=22	=22	=22	=22	=22
!!mixed beam:problem
!LO:TX:t=P:problem=mixed beam	!	!	!	!
(>8EEL/	8a\L 8cc\	.	8cc\	zna-
8E\	8a\J 8cc\	sf	8cc\	-my
8EE/	8.b\L 8.dd\	.	8.dd\	bu-
8EJ)\	.	.	.	.
.	16g#X\Jk 16b\	.	16b\	-de,
!!LO:LB:g=original
=23	=23	=23	=23	=23
!!mixed beam:problem
!LO:TX:t=P:problem=mixed beam	!	!LO:DY:b=2:rj	!	!
(>8EEL/	8e/L 8cc/	sf	8cc\	żyj-
8E\	8e/ 8cc/	.	8cc\	-mo
8EE/	8d/ 8b/	.	8b\	jak
8EJ)\	8B/J 8g#X/	.	8g#X/	po-
=24	=24	=24	=24	=24
!!mixed beam:problem
!LO:TX:t=P:problem=mixed beam	!	!	!	!
(>8EEL/	8c/L 8a/	.	8a/	-cty-
8E\	8g#X/ 8b/	.	8b/	-wi
8EE/	8a/ 8cc/	.	8cc/	lu-
8EJ)\	8b/J 8dd/	.	8dd/	-de
!!LO:LB:g=original
=25	=25	=25	=25	=25
!!mixed beam:problem
!LO:TX:t=P:problem=mixed beam	!	!LO:DY:b=2:rj	!	!
(>8EEL/	8cc\L 8ee\	sf	8ee\	ne-
8E\	8cc\ 8ee\	.	8ee\	-chaj
8EE/	8.b^<\ 8.dd\	.	8.dd\	szcza-
8EJ)\	.	.	.	.
.	16g#X\Jk 16b\	.	16b\	-stia
=26	=26	=26	=26	=26
!!mixed beam:problem
!LO:TX:t=P:problem=mixed beam	!	!	!	!
(>8EEL/	8a\L 8cc\	.	8cc\	zna-
8E\	8a\J 8cc\	.	8cc\	-my
8EE/	8.b^<\L 8.dd\	.	8.dd\	lu-
8EJ)\	.	.	.	.
.	16g#X\Jk 16b\	.	16b\	-de
!!LO:LB:g=original
=27	=27	=27	=27	=27
!!mixed beam:problem
!LO:TX:t=P:problem=mixed beam	!	!	!	!
(>8EEL/	8a/L 8cc/	.	8cc\	żyj-
8E\	8e/ 8cc/	.	8cc\	-mo
8EE/	8d/ 8b/	.	8b\	jak
8EJ)	8B/J 8g#X/	.	8g#X/	po-
*Xtremolo	*	*	*	*
=28	=28	=28	=28	=28
16AAA/LL	8c/L 8a/	.	8a/	-cty-
16AA/	.	.	.	.
16AAA/	8c/ 8a/	.	8a/	-wi
16AA/JJ	.	.	.	.
8AAA/	8c/J 8a/	.	8a/	lu-
8r	8r	.	8a/	-de.
==	==	==	==	==
*-	*-	*-	*-	*-
!!!RDF**kern: > = above
!!!RDF**kern: < = below
!!!system-decoration: g1,[{g2}]
!!!ENC: Jędrzej Mróz
!!!END: 2021-11-11
